X:1
T:Polly Put the Kettle On
S:George Baldwin
M:2/4
L:1/8
K:G
"G" gf ed|"C" ef ge|"D7" dc BA|"G" Bc d2|"G" gf ed|"C" ef ge|"D" fg af|"G" g4:|!
"G" ga bf|"D" af d2|"C" ef ge|"G" dB G2|"Am" AB cA|"G" dB GB|"D" cA FA|"G" G4:|!
"G" Bc dB|"C" cd e2|"D" AB cA|"G" Bc d2|"Em/G7" G3 B|"D" cB Ad|"G" BG "D" AF|"G" G2 G2:|
